X: 9
I: linebreak $
T: Prince William
T: longways for three couples
P: AABB x 3
C: Walsh c. 1731
C: 
N: 
N: 
K: G major
M: 4/4
L: 1/8
D2 |: "^A""G"G4 B2AG | "D"A4 D2c2 | "G"B4 "D"A4 | "G"GFGA G2A2 | B2G2 D2B2 | "D"A6G2 | 
F2d2 "A7"E2^c2 |  [1 "D"d6D2 :|]  [2 "D"d6Bc :: "^B""G"d4 "C"e2d2 | "D"c3B A2d2 | "C"c2B2 A2G2 | 
"D"F2A2 D4 | "G"G2FG "D"A2GA | "G"B2AB "C"c2d2 | "G"B2AG "D"D2F2 |  [1 "G"G6Bc :|]  [2 "G"G8 |] 


